resources/svg/keyboard.svg

<svg xmlns="http://www.w3.org/2000/svg" viewBox="0 0 15 15" fill="currentColor"><path fill-rule="evenodd" clip-rule="evenodd" d="M8 0v4h5.5A1.5 1.5 0 0115 5.5v7a1.5 1.5 0 01-1.5 1.5h-12A1.5 1.5 0 010 12.5v-7A1.5 1.5 0 011.5 4H7V0h1zm2 6h1v1h-1V6zm1 2h-1v1h1V8zm0 3H4v1h7v-1zM7 8h1v1H7V8zM5 8H4v1h1V8zm3-2H7v1h1V6zM4 6h1v1H4V6z" fill="currentColor"/></svg>

<svg xmlns="http://www.w3.org/2000/svg" viewBox="0 0 15 15" fill="currentColor"><path fill-rule="evenodd" clip-rule="evenodd" d="M8 0V4H13.5C14.3284 4 15 4.67157 15 5.5V12.5C15 13.3284 14.3284 14 13.5 14L1.5 14C0.671574 14 0 13.3284 0 12.5V5.5C0 4.67157 0.671574 4 1.5 4H7V0H8ZM10 6H11V7H10V6ZM11 8H10V9H11V8ZM11 11H4V12H11V11ZM7 8H8V9H7V8ZM5 8H4V9H5V8ZM8 6H7V7H8V6ZM4 6H5V7H4V6Z" fill="black"/></svg>
